www/assets/icons/security_update_good.svg

<svg xmlns="http://www.w3.org/2000/svg" width="24" height="24" viewBox="0 0 24 24" fill='currentColor'><path d="M17 1H7c-1.1 0-2 .9-2 2v18c0 1.1.9 2 2 2h10c1.1 0 2-.9 2-2V3c0-1.1-.9-2-2-2m0 17H7V6h10zm-1-7.95-1.41-1.41-3.54 3.54-1.41-1.41-1.41 1.41L11.05 15z"/></svg>

<svg width="24" height="24" viewBox="0 0 24 24" xmlns="http://www.w3.org/2000/svg" fill='currentColor'><path d="M17 1H7C5.9 1 5 1.9 5 3V21C5 22.1 5.9 23 7 23H17C18.1 23 19 22.1 19 21V3C19 1.9 18.1 1 17 1ZM17 18H7V6H17V18ZM16 10.05L14.59 8.64L11.05 12.18L9.64 10.77L8.23 12.18L11.05 15L16 10.05Z"/></svg>
